X:1
T:Garaison, 87.87 D
T:Garaison, 87.87 D
T:J. M. Castle, 1874
T:Public Domain Courtesy of the Cyber Hymnal™
C:J. M. Castle, 1874
Z:Public Domain
Z:Courtesy of the Cyber Hymnal™
%%score ( 1 2 ) 3
L:1/8
Q:1/4=100
M:4/4
K:E
V:1 treble 
V:2 treble 
V:3 bass 
V:1
 [B,E]>[B,F] [EG]>[EA] [EG]2 [B,F]2 | [B,E]4 [B,D]2 z2 | [B,E]>[B,F] [EG]>[DA] [EB]2 [EG]2 | %3
 [DF]6 z2 | [EG]>[FA] [GB]>[Ac] [GB]2 [EG]2 | [EA]4 [Ac]2 z2 | [DF]>[CE] [B,D]>[B,E] [DF]2 [DG]2 | %7
 [B,E]6 z2 | [B,D]>[CE] [DF]>[EG] [FA]2 [Ac]2 | [GB]4 [EG]2 z2 | D>[CE] [DF]>[EG] [FA]2 [Ac]2 | %11
 [GB]6 z2 | [Ge]>[Ge] [Ge]>[Fd] [Ec]2 [FB]2 | [Ge]4 [EG]2 z2 | [EF]>E [EF]>[FA] [EG]2 [DF]2 | E8 |] %16
V:2
 x8 | x8 | x8 | x8 | x8 | x8 | x8 | x8 | x8 | x8 | D3/2 x13/2 | x8 | x8 | x8 | x3/2 E/ x6 | E8 |] %16
V:3
 [E,G,]>[E,A,] [E,B,]>[E,C] [B,,B,]2 [B,,A,]2 | [B,,G,]4 [B,,F,]2 z2 | %2
 [E,G,]>[E,A,] [E,B,]>[F,B,] [G,E]2 [E,B,]2 | [B,,B,]6 z2 | %4
 [E,B,]>[E,B,] [E,E]>[E,E] [E,E]2 [E,B,]2 | [A,,C]4 [A,,E]2 z2 | %6
 [B,,B,]>[B,,B,] [B,,F,B,]>[B,,F,B,] [B,,B,]2 [B,,B,]2 | [E,G,]6 z2 | %8
 [B,,F,]>[B,,F,] [B,,B,]>[B,,B,] [B,,B,]2 [B,,E]2 | [E,E]4 [E,B,]2 z2 | %10
 [B,,B,]>[B,,B,] [B,,B,]>[B,,B,] [B,,B,]2 [B,,E]2 | [E,E]6 z2 | %12
 [E,B,]>[E,B,] [E,B,]>[E,B,] [E,C]2 [D,D]2 | [C,E]4 [C,C]2 z2 | %14
 [A,,C]>[A,,C] [A,,C]>[A,,C] [B,,B,]2 [B,,A,]2 | [E,G,]8 |] %16

